packages/dnb-eufemia/assets/icons/scooter.svg

<svg width="16" height="16" viewBox="0 0 16 16" fill="none" xmlns="http://www.w3.org/2000/svg">
<path d="M8.76862 8.6835C8.14799 7.87649 7.14767 7.41491 6.13091 7.46638C4.79372 7.46638 3.39629 7.30456 2.26504 8.16829C1.65577 8.63348 1.22031 9.28975 1.02846 10.0319C0.879821 10.6044 1.33079 11.1995 1.93135 11.1999M1.93135 11.1999H6.59759M1.93135 11.1999L1.93073 11.6666C1.93073 12.9375 2.99321 14 4.26416 14C5.53511 14 6.59759 12.9375 6.59759 11.6666V11.1999M8.46496 11.1999C9.2076 11.1999 9.91983 10.9049 10.445 10.3797C10.9701 9.85462 11.2651 9.14239 11.2651 8.39976M8.46496 11.1999H9.39834M8.46496 11.1999H6.59759M8.22912 2H9.16249C10.1793 2 11.0292 2.84999 11.0292 3.86675L11.0286 4.80012M13.214 8.39976C13.6001 8.39968 13.9767 8.51933 14.292 8.74221C14.6072 8.96509 14.8456 9.28024 14.9743 9.64426C15.0231 10.0976 15.0021 10.5557 14.9121 11.0026C14.826 11.1246 14.6805 11.1999 14.5313 11.1999H14.0646M11.0286 4.80012C11.0286 5.37973 11.3116 5.94576 11.7753 6.29352C12.2169 6.6247 12.8954 6.30089 12.8954 5.7335V3.86675C12.8954 3.73674 12.8592 3.60931 12.7908 3.49872C12.5798 3.15736 12.0997 3.06346 11.7753 3.30672C11.3116 3.65449 11.0286 4.22051 11.0286 4.80012ZM7 5H3M9.39834 11.1999L9.39772 11.6666C9.39772 12.9375 10.4602 14 11.7312 14C13.0021 14 14.0646 12.9375 14.0646 11.6666V11.1999M9.39834 11.1999H14.0646" stroke="black" stroke-width="1.5" stroke-linecap="round" stroke-linejoin="round"/>
</svg>

<svg width="16" height="16" viewBox="0 0 16 16" fill="none" xmlns="http://www.w3.org/2000/svg"><path d="M8.769 8.684A3.152 3.152 0 0 0 6.13 7.466c-1.337 0-2.735-.161-3.866.702a3.422 3.422 0 0 0-1.237 1.864.947.947 0 0 0 .903 1.168m0 0h4.667m-4.667 0v.467A2.357 2.357 0 0 0 4.264 14a2.357 2.357 0 0 0 2.334-2.333V11.2m1.867 0a2.8 2.8 0 0 0 2.8-2.8m-2.8 2.8h.933m-.933 0H6.598M8.229 2h.933c1.017 0 1.867.85 1.867 1.867V4.8m2.185 3.6a1.867 1.867 0 0 1 1.76 1.244c.05.454.028.912-.062 1.359a.472.472 0 0 1-.38.197h-.467m-3.036-6.4c0 .58.283 1.146.746 1.494.442.33 1.12.007 1.12-.56V3.867a.7.7 0 0 0-.104-.368.71.71 0 0 0-1.016-.192A1.89 1.89 0 0 0 11.03 4.8ZM7 5H3m6.398 6.2v.467A2.357 2.357 0 0 0 11.73 14a2.357 2.357 0 0 0 2.334-2.333V11.2m-4.667 0h4.667" stroke="#000" stroke-width="1.5" stroke-linecap="round" stroke-linejoin="round"/></svg>
